X:1
T:[ID 1-85a]
T:[ID 1-85a]
T:Bezeichnung standardisiert: Contratanz Conter Dantz 21.
T:Urheber unbekannt Datum in der hier transkribierten schriftlichen Quelle: 1775
C:Urheber unbekannt
C:Datum in der hier transkribierten schriftlichen Quelle: 1775
L:1/8
M:2/4
K:D
V:1 treble 
V:1
 F2 f2 | dc/d/ Ff | dF"^[sic]" e2 d2 c2 | c2 F2 | F2 f2 | dc/d/ Ff | dF e/d/c/B/ | c4 :: Fd dc/B/ | %9
 ce ed/c/ | df fe/d/ | c/B/A/G/ F2 | Fd dc/B/ | ce ed/c/ | dc/B/ A/G/F/E/ | F4 :| %16

